docs/.gitbook/assets/icon-map-16@dark.svg

<svg width="32" height="32" viewBox="0 0 16 16" fill="none" xmlns="http://www.w3.org/2000/svg">
<rect x="0" y="0" width="16" height="16" fill="#181c1f"/>
<path fill-rule="evenodd" clip-rule="evenodd" d="M5.41459 1.07918C5.6062 0.983374 5.82964 0.97408 6.02854 1.05364L10.6923 2.91915L13.8779 1.09882C14.11 0.966174 14.3952 0.967126 14.6264 1.10132C14.8577 1.23551 15 1.48265 15 1.75V12.25C15 12.5191 14.8558 12.7677 14.6221 12.9012L11.1221 14.9012C10.9235 15.0147 10.6839 15.0313 10.4715 14.9464L5.78417 13.0714L2.08541 14.9208C1.85292 15.0371 1.57681 15.0246 1.3557 14.888C1.13459 14.7513 1 14.5099 1 14.25V3.75C1 3.46592 1.1605 3.20622 1.41459 3.07918L5.41459 1.07918ZM6.5 11.7422L10 13.1422V4.25778L6.5 2.85778V11.7422ZM5 2.96353V11.7865L2.5 13.0365V4.21353L5 2.96353ZM11.5 4.18524V12.9576L13.5 11.8148V3.04239L11.5 4.18524Z" fill="#fff"/>
</svg>

<svg xmlns="http://www.w3.org/2000/svg" width="32" height="32" fill="none" viewBox="0 0 16 16"><path fill="#181c1f" d="M0 0h16v16H0z"/><path fill="#fff" fill-rule="evenodd" d="M5.415 1.08a.75.75 0 0 1 .614-.026l4.663 1.865 3.186-1.82A.75.75 0 0 1 15 1.75v10.5a.75.75 0 0 1-.378.651l-3.5 2a.75.75 0 0 1-.65.045l-4.688-1.875-3.699 1.85A.75.75 0 0 1 1 14.25V3.75a.75.75 0 0 1 .415-.67zM6.5 11.741l3.5 1.4V4.258l-3.5-1.4zM5 2.964v8.823l-2.5 1.25V4.214zm6.5 1.221v8.773l2-1.143V3.042z" clip-rule="evenodd"/></svg>
